media/conditionalmember.svg

<svg width="326" height="58" xmlns="http://www.w3.org/2000/svg" xmlns:xlink="http://www.w3.org/1999/xlink" overflow="hidden"><defs><clipPath id="clip0"><path d="M477 454 803 454 803 512 477 512Z" fill-rule="evenodd" clip-rule="evenodd"/></clipPath><linearGradient x1="547.439" y1="466.109" x2="547.439" y2="491.709" gradientUnits="userSpaceOnUse" spreadMethod="reflect" id="fill1"><stop offset="0" stop-color="#FFFFFF"/><stop offset="1" stop-color="#FFFFFF"/></linearGradient><linearGradient x1="732.241" y1="466.109" x2="732.241" y2="491.709" gradientUnits="userSpaceOnUse" spreadMethod="reflect" id="fill2"><stop offset="0" stop-color="#FFFFFF"/><stop offset="1" stop-color="#FFFFFF"/></linearGradient></defs><g clip-path="url(#clip0)" transform="translate(-477 -454)"><rect x="477" y="462" width="141" height="34" fill="#D73B01"/><path d="M556.233 477.778C555.44 477.778 554.766 478.062 554.213 478.629 553.659 479.197 553.317 479.938 553.187 480.854L558.858 480.854C558.851 479.884 558.617 479.128 558.155 478.588 557.694 478.048 557.053 477.778 556.233 477.778ZM539.074 477.778C538.096 477.778 537.31 478.118 536.715 478.798 536.121 479.479 535.823 480.331 535.823 481.357L535.823 482.823C535.823 483.691 536.105 484.428 536.669 485.033 537.233 485.638 537.949 485.94 538.817 485.94 539.836 485.94 540.634 485.551 541.212 484.771 541.789 483.992 542.078 482.909 542.078 481.521 542.078 480.352 541.808 479.436 541.268 478.773 540.728 478.11 539.997 477.778 539.074 477.778ZM547.142 476.609 548.823 476.609 548.823 486.668C548.823 488.391 548.476 489.719 547.782 490.652 547.089 491.585 546.096 492.052 544.804 492.052 544.325 492.052 543.86 491.942 543.409 491.723L543.409 490.155C543.915 490.462 544.393 490.616 544.845 490.616 546.376 490.616 547.142 489.392 547.142 486.945ZM567.879 476.363C568.802 476.363 569.615 476.534 570.319 476.876L570.319 478.599C569.54 478.052 568.706 477.778 567.817 477.778 566.744 477.778 565.864 478.163 565.177 478.932 564.49 479.701 564.146 480.711 564.146 481.962 564.146 483.192 564.469 484.163 565.115 484.874 565.761 485.585 566.628 485.94 567.715 485.94 568.631 485.94 569.492 485.636 570.299 485.028L570.299 486.627C569.492 487.113 568.535 487.355 567.428 487.355 565.931 487.355 564.722 486.868 563.803 485.894 562.883 484.92 562.424 483.657 562.424 482.105 562.424 480.376 562.919 478.986 563.911 477.937 564.902 476.888 566.225 476.363 567.879 476.363ZM556.264 476.363C557.638 476.363 558.701 476.807 559.453 477.696 560.205 478.585 560.581 479.819 560.581 481.398L560.581 482.28 553.167 482.28C553.194 483.449 553.509 484.351 554.11 484.987 554.712 485.622 555.539 485.94 556.592 485.94 557.774 485.94 558.861 485.551 559.852 484.771L559.852 486.35C558.93 487.02 557.709 487.355 556.192 487.355 554.708 487.355 553.543 486.879 552.695 485.925 551.848 484.971 551.424 483.63 551.424 481.9 551.424 480.266 551.887 478.935 552.813 477.906 553.739 476.878 554.89 476.363 556.264 476.363ZM524.417 473.718C522.872 473.718 521.618 474.275 520.654 475.389 519.69 476.503 519.208 477.966 519.208 479.778 519.208 481.589 519.678 483.047 520.618 484.151 521.558 485.255 522.783 485.807 524.294 485.807 525.907 485.807 527.179 485.281 528.108 484.228 529.038 483.175 529.503 481.702 529.503 479.808 529.503 477.867 529.052 476.367 528.149 475.307 527.247 474.247 526.003 473.718 524.417 473.718ZM575.367 473.502 575.367 476.609 578.012 476.609 578.012 478.045 575.367 478.045 575.367 483.961C575.367 484.665 575.486 485.168 575.726 485.469 575.965 485.769 576.361 485.92 576.915 485.92 577.339 485.92 577.705 485.804 578.012 485.571L578.012 487.007C577.616 487.225 577.093 487.335 576.443 487.335 574.604 487.335 573.685 486.309 573.685 484.259L573.685 478.045 571.88 478.045 571.88 476.609 573.685 476.609 573.685 474.046ZM524.54 472.159C526.57 472.159 528.206 472.843 529.446 474.21 530.687 475.577 531.308 477.365 531.308 479.573 531.308 481.972 530.672 483.869 529.4 485.264 528.129 486.658 526.427 487.355 524.294 487.355 522.209 487.355 520.539 486.668 519.285 485.294 518.03 483.92 517.403 482.133 517.403 479.932 517.403 477.566 518.042 475.68 519.321 474.271 520.599 472.863 522.339 472.159 524.54 472.159ZM548.003 471.759C548.31 471.759 548.572 471.863 548.787 472.072 549.003 472.28 549.11 472.542 549.11 472.856 549.11 473.157 549.003 473.413 548.787 473.625 548.572 473.837 548.31 473.943 548.003 473.943 547.702 473.943 547.446 473.841 547.234 473.636 547.022 473.431 546.916 473.171 546.916 472.856 546.916 472.542 547.022 472.28 547.234 472.072 547.446 471.863 547.702 471.759 548.003 471.759ZM534.142 471.564 535.823 471.564 535.823 478.455 535.864 478.455C536.691 477.06 537.901 476.363 539.494 476.363 540.841 476.363 541.895 476.833 542.657 477.773 543.42 478.713 543.801 479.973 543.801 481.552 543.801 483.308 543.373 484.715 542.519 485.771 541.664 486.827 540.496 487.355 539.012 487.355 537.624 487.355 536.575 486.767 535.864 485.592L535.823 485.592 535.823 487.109 534.142 487.109Z" fill="url(#fill1)" fill-rule="evenodd"/><text fill="#000000" fill-opacity="0" font-family="Arial,Arial_MSFontService,sans-serif" font-size="20.4873" x="517.403" y="489.491">Object</text><rect x="662" y="462" width="140" height="34" fill="#107C10"/><path d="M759.117 477.778C758.324 477.778 757.651 478.062 757.097 478.629 756.544 479.197 756.202 479.938 756.072 480.854L761.742 480.854C761.735 479.884 761.501 479.128 761.04 478.588 760.578 478.048 759.938 477.778 759.117 477.778ZM747.958 477.778C746.981 477.778 746.194 478.118 745.6 478.798 745.005 479.479 744.708 480.331 744.708 481.357L744.708 482.823C744.708 483.691 744.99 484.428 745.554 485.033 746.118 485.638 746.834 485.94 747.702 485.94 748.72 485.94 749.518 485.551 750.096 484.771 750.674 483.992 750.963 482.909 750.963 481.521 750.963 480.352 750.693 479.436 750.152 478.773 749.612 478.11 748.881 477.778 747.958 477.778ZM717.117 477.778C716.324 477.778 715.651 478.062 715.097 478.629 714.544 479.197 714.202 479.938 714.072 480.854L719.742 480.854C719.735 479.884 719.501 479.128 719.04 478.588 718.578 478.048 717.938 477.778 717.117 477.778ZM770.497 476.425C770.934 476.425 771.269 476.473 771.502 476.568L771.502 478.311C771.208 478.086 770.784 477.973 770.23 477.973 769.512 477.973 768.912 478.311 768.431 478.988 767.949 479.665 767.708 480.588 767.708 481.757L767.708 487.109 766.026 487.109 766.026 476.609 767.708 476.609 767.708 478.773 767.749 478.773C767.988 478.035 768.354 477.459 768.846 477.045 769.338 476.631 769.888 476.425 770.497 476.425ZM759.148 476.363C760.522 476.363 761.585 476.807 762.337 477.696 763.089 478.585 763.465 479.819 763.465 481.398L763.465 482.28 756.051 482.28C756.079 483.449 756.393 484.351 756.995 484.987 757.596 485.622 758.423 485.94 759.476 485.94 760.659 485.94 761.746 485.551 762.737 484.771L762.737 486.35C761.814 487.02 760.594 487.355 759.076 487.355 757.593 487.355 756.427 486.879 755.58 485.925 754.732 484.971 754.308 483.63 754.308 481.9 754.308 480.266 754.771 478.935 755.698 477.906 756.624 476.878 757.774 476.363 759.148 476.363ZM729.009 476.363C729.727 476.363 730.353 476.563 730.886 476.963 731.419 477.363 731.785 477.888 731.983 478.537 732.762 477.088 733.924 476.363 735.469 476.363 737.78 476.363 738.935 477.788 738.935 480.639L738.935 487.109 737.254 487.109 737.254 481.08C737.254 479.918 737.074 479.077 736.715 478.557 736.356 478.038 735.753 477.778 734.905 477.778 734.188 477.778 733.578 478.106 733.075 478.763 732.573 479.419 732.321 480.205 732.321 481.121L732.321 487.109 730.64 487.109 730.64 480.875C730.64 478.81 729.843 477.778 728.251 477.778 727.512 477.778 726.904 478.088 726.425 478.706 725.947 479.325 725.708 480.13 725.708 481.121L725.708 487.109 724.026 487.109 724.026 476.609 725.708 476.609 725.708 478.27 725.749 478.27C726.494 476.999 727.581 476.363 729.009 476.363ZM717.148 476.363C718.522 476.363 719.585 476.807 720.337 477.696 721.089 478.585 721.465 479.819 721.465 481.398L721.465 482.28 714.051 482.28C714.079 483.449 714.393 484.351 714.995 484.987 715.596 485.622 716.423 485.94 717.476 485.94 718.659 485.94 719.746 485.551 720.737 484.771L720.737 486.35C719.814 487.02 718.594 487.355 717.076 487.355 715.593 487.355 714.427 486.879 713.58 485.925 712.732 484.971 712.308 483.63 712.308 481.9 712.308 480.266 712.771 478.935 713.698 477.906 714.624 476.878 715.774 476.363 717.148 476.363ZM694.252 472.405 696.528 472.405 701.04 482.659C701.388 483.445 701.614 484.033 701.716 484.423L701.778 484.423C702.072 483.616 702.308 483.014 702.485 482.618L707.089 472.405 709.243 472.405 709.243 487.109 707.53 487.109 707.53 477.245C707.53 476.466 707.578 475.512 707.674 474.384L707.633 474.384C707.469 475.047 707.322 475.522 707.192 475.809L702.168 487.109 701.327 487.109 696.313 475.891C696.169 475.563 696.022 475.061 695.872 474.384L695.831 474.384C695.885 474.972 695.913 475.932 695.913 477.265L695.913 487.109 694.252 487.109ZM743.026 471.564 744.708 471.564 744.708 478.455 744.749 478.455C745.576 477.06 746.786 476.363 748.379 476.363 749.725 476.363 750.78 476.833 751.542 477.773 752.304 478.713 752.685 479.973 752.685 481.552 752.685 483.308 752.258 484.715 751.403 485.771 750.549 486.827 749.38 487.355 747.897 487.355 746.509 487.355 745.46 486.767 744.749 485.592L744.708 485.592 744.708 487.109 743.026 487.109Z" fill="url(#fill2)" fill-rule="evenodd"/><text fill="#000000" fill-opacity="0" font-family="Arial,Arial_MSFontService,sans-serif" font-size="15.791" x="694.252" y="485.381">Member</text><text fill="#1C6982" font-family="Segoe UI,Segoe UI_MSFontService,sans-serif" font-weight="700" font-size="27" transform="translate(630.423 489)">?.</text></g></svg>

<svg xmlns="http://www.w3.org/2000/svg" overflow="hidden" viewBox="0 0 326 58">
  <defs/>
  <defs>
    <linearGradient id="b" x1="547.4" x2="547.4" y1="466.1" y2="491.7" gradientUnits="userSpaceOnUse" spreadMethod="reflect">
      <stop offset="0" stop-color="#FFF"/>
      <stop offset="1" stop-color="#FFF"/>
    </linearGradient>
    <linearGradient id="c" x1="732.2" x2="732.2" y1="466.1" y2="491.7" gradientUnits="userSpaceOnUse" spreadMethod="reflect">
      <stop offset="0" stop-color="#FFF"/>
      <stop offset="1" stop-color="#FFF"/>
    </linearGradient>
    <clipPath id="a">
      <path fill-rule="evenodd" d="M477 454h326v58H477z" clip-rule="evenodd"/>
    </clipPath>
  </defs>
  <g clip-path="url(#a)" transform="translate(-477 -454)">
    <path fill="#D73B01" d="M477 462h141v34H477z"/>
    <path fill="url(#b)" fill-rule="evenodd" d="M556.2 477.8c-.8 0-1.4.3-2 .8-.5.6-.9 1.3-1 2.3h5.7c0-1-.3-1.8-.7-2.3-.5-.6-1.1-.8-2-.8zm-17.1 0a3 3 0 00-2.4 1c-.6.7-.9 1.5-.9 2.6v1.4c0 .9.3 1.6.9 2.2.5.6 1.2 1 2.1 1 1 0 1.8-.4 2.4-1.2.6-.8.9-1.9.9-3.3 0-1.1-.3-2-.8-2.7-.6-.7-1.3-1-2.2-1zm8-1.2h1.7v10c0 1.8-.3 3.1-1 4-.7 1-1.7 1.5-3 1.5-.5 0-1-.2-1.4-.4v-1.5c.5.3 1 .4 1.4.4 1.6 0 2.3-1.2 2.3-3.7zm20.8-.2c.9 0 1.7.1 2.4.5v1.7c-.8-.5-1.6-.8-2.5-.8-1 0-2 .4-2.6 1.1-.7.8-1 1.8-1 3 0 1.3.3 2.3 1 3 .6.7 1.4 1 2.5 1 1 0 1.8-.3 2.6-.9v1.6c-.8.5-1.8.8-2.9.8-1.5 0-2.7-.5-3.6-1.5-1-1-1.4-2.2-1.4-3.8 0-1.7.5-3.1 1.5-4.2 1-1 2.3-1.5 4-1.5zm-11.6 0a4 4 0 013.2 1.3c.7.9 1 2.1 1 3.7v.9h-7.3c0 1.1.3 2 1 2.7.5.6 1.3 1 2.4 1 1.2 0 2.3-.4 3.3-1.2v1.6a6 6 0 01-3.7 1c-1.5 0-2.7-.5-3.5-1.5-.9-1-1.3-2.3-1.3-4 0-1.6.5-3 1.4-4 1-1 2-1.5 3.5-1.5zm-31.9-2.7c-1.5 0-2.8.6-3.7 1.7a6.5 6.5 0 00-1.5 4.4c0 1.8.5 3.2 1.4 4.4 1 1 2.2 1.6 3.7 1.6 1.6 0 2.9-.5 3.8-1.6 1-1 1.4-2.5 1.4-4.4 0-2-.4-3.4-1.4-4.5-.9-1-2.1-1.6-3.7-1.6zm51-.2v3.1h2.6v1.4h-2.6v6c0 .7 0 1.2.3 1.5.3.3.7.4 1.2.4.4 0 .8-.1 1.1-.3v1.4c-.4.2-1 .3-1.6.3-1.8 0-2.7-1-2.7-3V478h-1.8v-1.4h1.8V474zm-50.9-1.3c2 0 3.7.6 5 2a7.7 7.7 0 011.8 5.4c0 2.4-.6 4.3-1.9 5.7-1.3 1.4-3 2-5.1 2-2 0-3.8-.6-5-2a7.6 7.6 0 01-1.9-5.4c0-2.3.6-4.2 2-5.6 1.2-1.4 3-2.1 5.1-2.1zm23.5-.4a1 1 0 011.1 1c0 .4-.1.6-.3.8a1 1 0 01-.8.3 1 1 0 01-1-1c0-.4 0-.6.2-.8.2-.2.5-.3.8-.3zm-13.9-.2h1.7v6.9a4 4 0 013.7-2.1c1.3 0 2.4.4 3.2 1.4.7 1 1.1 2.2 1.1 3.8 0 1.7-.4 3.1-1.3 4.2-.8 1-2 1.6-3.5 1.6-1.4 0-2.4-.6-3.1-1.8v1.5H534z"/>
    <text x="517.4" y="489.5" fill-opacity="0" font-family="Arial,Arial_MSFontService,sans-serif" font-size="20.5">
      Object
    </text>
    <path fill="#107C10" d="M662 462h140v34H662z"/>
    <path fill="url(#c)" fill-rule="evenodd" d="M759.1 477.8c-.8 0-1.4.3-2 .8-.6.6-.9 1.3-1 2.3h5.6c0-1-.2-1.8-.7-2.3-.4-.6-1-.8-1.9-.8zm-11.1 0a3 3 0 00-2.4 1c-.6.7-.9 1.5-.9 2.6v1.4c0 .9.3 1.6.9 2.2.5.6 1.2 1 2.1 1 1 0 1.8-.4 2.4-1.2.6-.8.9-1.9.9-3.3 0-1.1-.3-2-.8-2.7-.6-.7-1.3-1-2.2-1zm-30.9 0c-.8 0-1.4.3-2 .8-.6.6-.9 1.3-1 2.3h5.6c0-1-.2-1.8-.7-2.3-.4-.6-1-.8-1.9-.8zm53.4-1.4c.4 0 .8 0 1 .2v1.7a2 2 0 00-1.3-.3c-.7 0-1.3.3-1.8 1s-.7 1.6-.7 2.8v5.3H766v-10.5h1.7v2.2c.3-.8.7-1.3 1.1-1.8.5-.4 1-.6 1.7-.6zm-11.4 0a4 4 0 013.2 1.3c.8.9 1.2 2.1 1.2 3.7v.9H756c0 1.1.3 2 .9 2.7.6.6 1.4 1 2.5 1 1.2 0 2.2-.4 3.2-1.2v1.6a6 6 0 01-3.6 1c-1.5 0-2.7-.5-3.5-1.5-.9-1-1.3-2.3-1.3-4 0-1.6.5-3 1.4-4 1-1 2-1.5 3.4-1.5zm-30 0a3 3 0 012.9 2.1c.8-1.4 2-2.1 3.5-2.1 2.3 0 3.4 1.4 3.4 4.2v6.5h-1.6v-6c0-1.2-.2-2-.6-2.5-.3-.6-1-.8-1.8-.8-.7 0-1.3.3-1.8 1-.5.6-.8 1.4-.8 2.3v6h-1.7V481c0-2-.8-3.1-2.3-3.1-.8 0-1.4.3-1.9 1-.5.5-.7 1.3-.7 2.3v6H724v-10.5h1.7v1.7c.8-1.3 1.9-2 3.3-2zm-12 0a4 4 0 013.2 1.3c.8.9 1.2 2.1 1.2 3.7v.9H714c0 1.1.3 2 .9 2.7.6.6 1.4 1 2.5 1 1.2 0 2.2-.4 3.2-1.2v1.6a6 6 0 01-3.6 1c-1.5 0-2.7-.5-3.5-1.5-.9-1-1.3-2.3-1.3-4 0-1.6.5-3 1.4-4 1-1 2-1.5 3.4-1.5zm-22.8-4h2.2l4.5 10.3c.4.7.6 1.3.7 1.7l.8-1.8 4.6-10.2h2.1v14.7h-1.7v-9.9c0-.7 0-1.7.2-2.8l-.5 1.4-5 11.3h-.9l-5-11.2-.4-1.5V487h-1.6zm48.7-.8h1.7v6.9a4 4 0 013.7-2.1c1.3 0 2.4.4 3.1 1.4.8 1 1.2 2.2 1.2 3.8 0 1.7-.4 3.1-1.3 4.2-.9 1-2 1.6-3.5 1.6-1.4 0-2.4-.6-3.2-1.8v1.5H743z"/>
    <text x="694.3" y="485.4" fill-opacity="0" font-family="Arial,Arial_MSFontService,sans-serif" font-size="15.8">
      Member
    </text>
    <text fill="#1C6982" font-family="Segoe UI,Segoe UI_MSFontService,sans-serif" font-size="27" font-weight="700" transform="translate(630.4 489)">
      ?.
    </text>
  </g>
</svg>
